X:1
T:The Roast Beef of Old England
T:Richard Leveridge 
T:The Roast Beef of Old England
T:Copyright © 
C:Richard Leveridge
Z:Copyright ©
%%score 1 { ( 2 4 ) | 3 }
L:1/8
M:6/8
K:Bb
V:1 treble nm="Voice" snm="Voice"
V:2 treble nm="Piano" snm="Pno."
V:4 treble 
V:3 bass 
V:1
"^Spiritoso" z | z6 | z6 | z6 | z2 z z2!mf!"^1." F | B>cB A>Bc | dBd c2 A/A/ | B>cB A>GF | %8
w: ||||When|migh- ty roast beef was the|Eng- lish man's food, I en-|no- bled our hears and en-|
 GC=E F2 F | G_EG B>AG | FDB, G3 |!f!"^CHORUS" c>de A>GA | B3 F2 D | E>FG FBA | B3- B2 |] %15
w: rich- ed our blood, Our|sol- diers were brave and our|cour- tiers were good.|O! the roast beef of old|Eng- land! And|O! for old Eng- land's roast|beef. _|
V:2
!mf!"^Spiritoso" F | B>cB AB!<(!c!<)! | dcB !fermata![Fcf]2!f! [B,D] | E>FG FBA | [DFB]2 z z2 z | %5
!mf! [FB]2 z [FB]2 z | [DB]2 z [CFc]2 z | [CGB]2 z [CFA]2 z | [B,=EG] z [B,CE] [A,CF]2 z | %9
 [B,_EG]2 z (B>AG) | F3 [G,B,G]2 z |!f! [EGc]2 z [CF=A]2 z | [B,FB]3- [B,FB]2 [B,D] | %13
 [B,E]>[B,F][B,G] F3 | [B,DB]3- [B,DB]2 |] %15
V:3
 z | [B,D]2 z [F,C]2 z | [B,,B,]2 z [F,,C,A,]2 B,, | C,>D,E, F,2 [F,,F,] | [B,,F,]2 z z2 z | %5
 [B,D]2 z [F,C]2 z | [B,,B,]2 z [F,,C,A,]2 z | [=E,,=E,]2 z [F,,F,]2 z | [C,,C,] z C, [F,,F,]2 z | %9
 [E,,E,]2 z G,>F,E, | D,3 [E,,E,]2 [D,,D,] | %11
 [C,,C,]2 z [F,,F,]2"^2.3.""^Our fathers of old were robust, stout and strong,And kept open house with good cheer all day long,Which made their plump tenants rejoice in this song,          O! the roast beef, etc.When good Queen Elizabeth sat on the throne,Ere coffee, or tea, or such slipslops were known,The world was in terror if e'er she did frown.          O! the roast beef, etc." [E,,E,] | %12
 [D,,D,]3- [D,,D,]2 B,, | C,>D,E, F,2- [F,,F,] | [B,,,B,,]3- [B,,,B,,]2 |] %15
V:4
 x | F2 z F2 z | F2 z x3 | B,2 z [B,D]2 [CEF] | x6 | x6 | x6 | x6 | x6 | x3 [B,E]3 | (B,2 _A,) x3 | %11
 x6 | x6 | x3 ([B,D]2 [CE]) | x5 |] %15

